incomeartour/img/icons/account.svg

<svg width="20" height="21" viewBox="0 0 20 21" fill="none" xmlns="http://www.w3.org/2000/svg">
<path d="M10 0.15477C4.48 0.15477 0 4.63477 0 10.1548C0 15.6748 4.48 20.1548 10 20.1548C15.52 20.1548 20 15.6748 20 10.1548C20 4.63477 15.52 0.15477 10 0.15477ZM5.07 16.4348C5.5 15.5348 8.12 14.6548 10 14.6548C11.88 14.6548 14.51 15.5348 14.93 16.4348C13.57 17.5148 11.86 18.1548 10 18.1548C8.14 18.1548 6.43 17.5148 5.07 16.4348ZM16.36 14.9848C14.93 13.2448 11.46 12.6548 10 12.6548C8.54 12.6548 5.07 13.2448 3.64 14.9848C2.62 13.6448 2 11.9748 2 10.1548C2 5.74477 5.59 2.15477 10 2.15477C14.41 2.15477 18 5.74477 18 10.1548C18 11.9748 17.38 13.6448 16.36 14.9848ZM10 4.15477C8.06 4.15477 6.5 5.71477 6.5 7.65477C6.5 9.59477 8.06 11.1548 10 11.1548C11.94 11.1548 13.5 9.59477 13.5 7.65477C13.5 5.71477 11.94 4.15477 10 4.15477ZM10 9.15477C9.17 9.15477 8.5 8.48477 8.5 7.65477C8.5 6.82477 9.17 6.15477 10 6.15477C10.83 6.15477 11.5 6.82477 11.5 7.65477C11.5 8.48477 10.83 9.15477 10 9.15477Z" fill="black"/>
</svg>

<svg width="20" height="21" fill="none" xmlns="http://www.w3.org/2000/svg"><path d="M10 .155c-5.52 0-10 4.48-10 10s4.48 10 10 10 10-4.48 10-10-4.48-10-10-10zm-4.93 16.28c.43-.9 3.05-1.78 4.93-1.78s4.51.88 4.93 1.78a7.893 7.893 0 01-4.93 1.72c-1.86 0-3.57-.64-4.93-1.72zm11.29-1.45c-1.43-1.74-4.9-2.33-6.36-2.33s-4.93.59-6.36 2.33A7.95 7.95 0 012 10.155c0-4.41 3.59-8 8-8s8 3.59 8 8c0 1.82-.62 3.49-1.64 4.83zM10 4.155c-1.94 0-3.5 1.56-3.5 3.5s1.56 3.5 3.5 3.5 3.5-1.56 3.5-3.5-1.56-3.5-3.5-3.5zm0 5c-.83 0-1.5-.67-1.5-1.5s.67-1.5 1.5-1.5 1.5.67 1.5 1.5-.67 1.5-1.5 1.5z" fill="#000"/></svg>
